assets/icons/24px/stroke/productivity-24px.svg

<svg width="24" height="24" viewBox="0 0 24 24" fill="none" xmlns="http://www.w3.org/2000/svg">
<path fill-rule="evenodd" clip-rule="evenodd" d="M6.66474 2.25291C7.07735 2.62002 7.11423 3.25211 6.74712 3.66472C3.54332 7.26562 3.67615 12.0158 4.48849 14.7115C4.64784 15.2403 4.34834 15.7981 3.81954 15.9575C3.29075 16.1168 2.73289 15.8173 2.57354 15.2885C1.6403 12.1916 1.42941 6.63272 5.25292 2.3353C5.62003 1.92269 6.25212 1.8858 6.66474 2.25291Z" fill="white"/>
<path fill-rule="evenodd" clip-rule="evenodd" d="M16.592 4.09509C17.4189 3.09769 18.9078 2.94082 19.9418 3.69039L20.873 4.36544C21.9452 5.14268 22.1726 6.63715 21.3109 7.67638L21.307 7.68106L21.307 7.68105L11.2676 19.6409C11.0736 19.8743 10.8366 20.0669 10.5719 20.211L8.16218 21.523C7.34694 21.9669 6.44698 21.8063 5.84297 21.3315C5.23221 20.8514 4.85462 19.9809 5.21666 19.0675L6.14707 16.7204L7.07422 17.0879L6.14707 16.7204C6.23653 16.4947 6.36127 16.2857 6.51535 16.0998L10.391 11.4254C10.7435 11.0002 11.3739 10.9413 11.7991 11.2938C12.2242 11.6463 12.2831 12.2768 11.9306 12.7019L8.05498 17.3764L7.29334 16.7449L8.05498 17.3764C8.03275 17.4032 8.0169 17.4307 8.00632 17.4574L7.09071 19.7672C7.10515 19.7758 7.12182 19.7816 7.13758 19.7833C7.14675 19.7843 7.15571 19.7839 7.16502 19.7821C7.17397 19.7804 7.18747 19.7765 7.20581 19.7665L9.61551 18.4545L10.0937 19.3328L9.61551 18.4545C9.66389 18.4282 9.70203 18.3957 9.73018 18.3618L9.73406 18.3571L9.73408 18.3571L19.7726 6.39827C19.8302 6.32796 19.8443 6.25691 19.8356 6.19388C19.8268 6.12932 19.7905 6.05088 19.6992 5.98471L18.768 5.30966C18.5604 5.15917 18.2646 5.21123 18.1316 5.37162L17.3618 4.73335L18.1316 5.37162L17.3744 6.28492C16.9074 6.84815 16.0877 6.92667 15.5193 6.51463L14.9694 6.11593L13.7698 7.56273C13.4173 7.98789 12.7869 8.04679 12.3617 7.69428C11.9366 7.34178 11.8777 6.71136 12.2302 6.2862L13.5933 4.64215C14.1803 3.9342 15.223 3.82956 15.9466 4.35411L16.2156 4.54909L16.592 4.09509ZM15.8353 5.00772C15.8351 5.00794 15.8349 5.00817 15.8347 5.00839L16.3197 5.41052L15.8347 5.00839L15.8353 5.00772ZM15.1325 5.91913C15.1327 5.91898 15.1328 5.91883 15.1329 5.91868L14.9327 5.75269L15.1329 5.91868L15.1325 5.91913Z" fill="white"/>
</svg>

<svg width="24" height="24" fill="none" xmlns="http://www.w3.org/2000/svg"><path fill-rule="evenodd" clip-rule="evenodd" d="M6.665 2.253a1 1 0 0 1 .082 1.412c-3.204 3.6-3.07 8.35-2.259 11.046a1 1 0 1 1-1.914.578C1.64 12.192 1.429 6.633 5.253 2.335a1 1 0 0 1 1.412-.082zm9.927 1.842c.827-.997 2.316-1.154 3.35-.405l.931.675c1.072.778 1.3 2.272.438 3.311l-.004.005-10.04 11.96a2.39 2.39 0 0 1-.695.57l-2.41 1.312a2.107 2.107 0 0 1-2.319-.192c-.61-.48-.988-1.35-.626-2.264l.93-2.347.927.368-.927-.368c.09-.225.214-.434.368-.62l3.876-4.675a1 1 0 1 1 1.54 1.277l-3.876 4.674-.762-.631.762.631a.3.3 0 0 0-.049.081l-.915 2.31a.119.119 0 0 0 .047.016.09.09 0 0 0 .027 0 .14.14 0 0 0 .04-.017l2.41-1.311.479.878-.478-.878a.391.391 0 0 0 .114-.093l.004-.005L19.773 6.398a.259.259 0 0 0 .063-.204.312.312 0 0 0-.137-.21l-.931-.674c-.208-.15-.503-.099-.636.062l-.77-.639.77.639-.758.913a1.372 1.372 0 0 1-1.855.23l-.55-.4-1.2 1.448a1 1 0 1 1-1.539-1.277l1.363-1.644c.587-.708 1.63-.812 2.354-.288l.269.195.376-.454zm-.757.913l.485.403-.485-.403zm-.703.911l-.2-.166.2.166z" fill="#fff"/></svg>
